icon/ir/phone-income.svg

<svg stroke-width="1.5" viewBox="0 0 24 24" fill="none" xmlns="http://www.w3.org/2000/svg" height="1em" width="1em">
  <path d="M22 5H16M16 5L19 2M16 5L19 8" stroke="currentColor" stroke-linecap="round" stroke-linejoin="round"/>
  <path d="M18.1182 14.702L14 15.5C11.2183 14.1038 9.5 12.5 8.5 10L9.26995 5.8699L7.81452 2L4.0636 2C2.93605 2 2.04814 2.93178 2.21654 4.04668C2.63695 6.83 3.87653 11.8765 7.5 15.5C11.3052 19.3052 16.7857 20.9564 19.802 21.6127C20.9668 21.8662 22 20.9575 22 19.7655L22 16.1812L18.1182 14.702Z" stroke="currentColor" stroke-linecap="round" stroke-linejoin="round"/>
</svg>

<svg width="24" height="24" stroke-width="1.5" fill="none" xmlns="http://www.w3.org/2000/svg"><path d="M22 5h-6m0 0 3-3m-3 3 3 3M18.118 14.702 14 15.5c-2.782-1.396-4.5-3-5.5-5.5l.77-4.13L7.815 2H4.064c-1.128 0-2.016.932-1.847 2.047.42 2.783 1.66 7.83 5.283 11.453 3.805 3.805 9.286 5.456 12.302 6.113 1.165.253 2.198-.655 2.198-1.848v-3.584l-3.882-1.479Z" stroke="currentColor" stroke-linecap="round" stroke-linejoin="round"/></svg>
